X:1
T:Gratias agimus tibi
T:Francisco Valls (1665-1747)
T:From the composer's “Missa ut queant laxis”
T:Gratias agimus tibi
T:Copyright © 
T:Copyright © 
T:Copyright © 
C:Francisco Valls (1665-1747)
Z:From the composer's
Z:“Missa ut queant laxis”
Z:Copyright ©
%%score 1 [ 2 3 4 ]
L:1/8
M:12/8
K:D
V:1 treble nm="Tiple solo (Soprano)" snm="S."
V:2 treble nm="Solo violin" snm="Vln."
V:3 treble nm="Violón " snm="Violón"
V:4 bass nm="Continuo" snm="Cont."
V:1
"^Largo" z12 | z12 | e>fe e>fe e>fe e>fe | e>dc B>ed c>Bc A3 | z12 | z12 | A>BA B>cB c>dc ^d>ed | %7
w: ||Gra- * * * * * * * * * * *|* * * * * * * ti- * as|||Gra- * * * * * * * * * * *|
 e>fe e>fe- e>dc B>AB | ^G>FG E3 z3 z3 | z12 | z3 z3 B>cB B>cB | B>cB B>cB B>A^G F>BA | %12
w: * * * * * * * ti- as a- gi- mus|ti- * * bi,||gra- * * * * *|* * * * * * * ti- as a- gi- mus|
 ^G>FG E3 G>AB G>AB | E3 E3 c>de c>de | A3 A3 f>=gf f>=gf | e>fe e>fe d>ed d>ed | %16
w: ti- * * bi prop- * * ter _ _|mag- nam, prop- * * ter _ _|mag- nam glo- * * * * *||
 c>dc (B2 E) A3 z3 | c>de c>de A3 A3 | z3 z3 d>ef d>ef | B3 B3 B>cd B>cd | e>fe e>fe e>fe e>fe | %21
w: * ri- am tu- * am,|prop- * * ter _ _ mag- nam,|prop- * * ter _ _|mag- nam glo- * * * * *||
 e>dc B>ed c>Bc A3 | c>dc B>cB A>Bc A>Bc | B2 A A2 ^G A6- | !fermata!A12 |] %25
w: * ri- am tu- * * * * * am,|glo- * * * * * * ri- am tu- * *|* * * * am.|_|
V:2
 e2 A e>f^g a2 F c>de | f>dc B>ed c2 A E2 C | A,3 z3 z3 z3 | z12 | e2 A e>f^g a2 F c>de | %5
 f>dc B>ed c2 A E2 C | A,6 z3 z3 | A3 B3 c3 ^d3 | e3 z3 B2 E B>c^d | e2 C ^G>AB c>de F>e^d | %10
 e2 B ^G>AB E3 z3 | e2 C ^G>AB c>de F>e^d | e2 B ^G>AB E3 z3 | E>F^G E>FG A2 E C2 A, | %14
 A>Bc A>Bc d>ed d>ed | d>ed c>dc c>dc B>cB | B2 A A2 G c>de c>de | A3 A3 A>Bc A>Bc | F3 F3 z3 z3 | %19
 B>cd B>cd ^G3 z3 | A>Bc B>cB A>Bc A>Bc | B2 A A2 ^G A2 E C2 A, | e>fe e>fe e>fe e>fe | %23
 e>dc B>ed c2 e c>de | A2 E C>DE !fermata!A,6 |] %25
V:3
 E2 A, E>F^G A2 F, C>DE | F>DC[K:bass] B,>ED C2 A, E,2 C, | A,,3 z3 z3 z3 | z12 | %4
 E2 A, E>F^G A2 F, C>DE | F>DC B,>ED C2[K:bass] A, E,2 C, | A,,6 z3 z3 | A,3 B,3 C3 ^D3 | %8
 E3 z3 B,2 E, B,>C^D | E2 C, ^G,>A,B, C>DE F,>E^D | E2 B, ^G,>A,B, E,3 z3 | %11
 E2 C, ^G,>A,B, C>DE F,>E^D | E2 B, ^G,>A,B, E,3 z3 | E,>F,^G, E,>F,G, A,2 E, C,2 A,, | %14
 A,>B,C A,>B,C D>ED D>ED | D>ED C>DC C>DC B,>CB, | B,2 A, A,2 G, C>DE C>DE | %17
 A,3 A,3 A,>B,C A,>B,C | F,3 F,3 z3 z3 | B,>CD B,>CD ^G,3 z3 | A,>B,C B,>CB, A,>B,C A,>B,C | %21
 B,2 A, A,2 ^G, A,2 E, C,2 A,, | E>FE E>FE E>FE E>FE | E>DC B,>ED C2 E C>DE | %24
 A,2 E, C,>D,E, !fermata!A,,6 |] %25
V:4
 A,3 ^G,3 F,3 C,3 | D,3 E,3 A,,6 | A,3 ^G,3 F,3 C,3 | D,3 E,3 A,,6 | A,3 ^G,3 F,3 C,3 | %5
w: ||* * 7 *||* * 7 *|
 D,3 E,3 A,,6 | z6 A,,3 B,,3 | C,3 ^G,,3 A,,3 B,,3 | E,,6 E,3 ^D,3 | C,3 ^G,,3 A,,3 B,,3 | %10
w: |* 3#||||
 E,,6 E,3 ^D,3 | C,3 ^G,,3 A,,3 B,,3 | E,,6 z3 z3 | C,>D,E, C,>D,E, A,,3 A,,3 | %14
w: ||||
 F,>G,A, F,>G,A, D,2 E, F,2 G, | A,,2 B,, C,2 A,, B,,2 A,, ^G,,2 E,, | A,,2 D, E,3 A,,3 z3 | z12 | %18
w: * * * * * * * * 6 *|4 * * * * * * *|||
 D,>E,F, D,>E,F, B,,3 z3 | ^G,,3 z3 E,3 D,3 | C,3 ^G,3 F,3 C,3 | D,3 E,3 A,,6 | A,3 ^G,3 F,3 C,3 | %23
w: ||6 6 7 *|||
 D,3 E,3 A,,3 z3 | A,,3 z3 A,,3 z3 |] %25
w: ||

